icons/apparel/helmet.svg

<svg xmlns="http://www.w3.org/2000/svg" xmlns:ffdec="https://www.free-decompiler.com/flash" ffdec:objectType="shape" width="67.55" height="62.55"><path d="M11.4 10.75q2.95-2.9 6.9-5.15Q28.7-.3 39.8 1.55q8.75 1.8 15.3 7.75 6.4 5.75 9.4 14.3 2.95 8.35 1.5 18.6-1.5 10.2-6.8 17.55.85-2.6.55-4.85-.3-2.6-2.1-4.2-.95-.85-3.3-1.2-2.45-.35-3.4-1.15T49.9 45.6l.15-3.05Q50.2 39 49.7 37q-.7-2.95-2.95-4.55-1.2-.85-3.2-1.35l-3.4-.65-9.7-1.65-15.65-1.2q-2.5.1-4.25 1.1-1.55.85-3.4 2.9Q5.05 34 4.2 37q-.7 2.45-.75 6.15l-.3 3.25-.25 3.25.45 3.8Q2.6 51.5 2.1 48.3l-.55-4.45Q.1 33.25 4 22.25q1.25-3.45 3.15-6.35l3.5-4.35zM43.25 27.4 38 26.45 25.1 24.3l-7.5-.9q-4.9-.25-7.25 1.45-.45.35-.45.75l.6-.05q2-1.45 6.7-1.1l7 1 16.55 2.85q4.9 1 6.8 2.05 3.15 1.75 3.9 5.6.25 1.25 0 5.35-.25 3.45.6 5.2l.25.15q2.6 0 4.5.8 2.4 1 3.05 3.05l.7-.1.5-.8q-.95-2.85-5.3-3.8l-2.45-.55q-.55-.35-.6-2.35.25-5.3-.15-7.9-.65-4.55-4.2-6.1-2-.9-5.1-1.5"/></svg>

<?xml version="1.0" encoding="UTF-8" standalone="no"?>
<svg
   ffdec:objectType="shape"
   height="62.55px"
   width="67.55px"
   version="1.1"
   id="svg2"
   sodipodi:docname="helmet.svg"
   inkscape:version="1.3.2 (091e20e, 2023-11-25)"
   xmlns:inkscape="http://www.inkscape.org/namespaces/inkscape"
   xmlns:sodipodi="http://sodipodi.sourceforge.net/DTD/sodipodi-0.dtd"
   xmlns="http://www.w3.org/2000/svg"
   xmlns:svg="http://www.w3.org/2000/svg"
   xmlns:ffdec="https://www.free-decompiler.com/flash">
  <g transform="matrix(1.0, 0.0, 0.0, 1.0, 0.0, 0.0)">
    <path d="M11.4 10.75 Q14.35 7.85 18.3 5.6 28.7 -0.3 39.8 1.55 48.55 3.35 55.1 9.3 61.5 15.05 64.5 23.6 67.45 31.95 66.0 42.2 64.5 52.4 59.2 59.75 60.05 57.15 59.75 54.9 59.45 52.3 57.65 50.7 56.7 49.85 54.35 49.5 51.9 49.15 50.95 48.35 50.0 47.55 49.9 45.6 L50.05 42.55 Q50.2 39.0 49.7 37.0 49.0 34.05 46.75 32.45 45.55 31.6 43.55 31.1 L40.15 30.45 30.45 28.8 14.8 27.6 Q12.3 27.7 10.55 28.7 9.0 29.55 7.15 31.6 5.05 34.0 4.2 37.0 3.5 39.45 3.45 43.15 L3.15 46.4 2.9 49.65 3.35 53.45 Q2.6 51.5 2.1 48.3 L1.55 43.85 Q0.1 33.25 4.0 22.25 5.25 18.8 7.15 15.9 L10.65 11.55 11.4 10.75 M43.25 27.4 L38.0 26.45 25.1 24.3 17.6 23.4 Q12.7 23.15 10.35 24.85 9.9 25.2 9.9 25.6 L10.5 25.55 Q12.5 24.1 17.2 24.45 L24.2 25.45 40.75 28.3 Q45.65 29.3 47.55 30.35 50.7 32.1 51.45 35.95 51.7 37.2 51.45 41.3 51.2 44.75 52.05 46.5 L52.3 46.65 Q54.9 46.65 56.8 47.45 59.2 48.45 59.85 50.5 L60.55 50.4 61.05 49.6 Q60.1 46.75 55.75 45.8 L53.3 45.25 Q52.75 44.9 52.7 42.9 52.95 37.6 52.55 35.0 51.9 30.45 48.35 28.9 46.35 28.0 43.25 27.4" />
  </g>
</svg>
